X: 1
T:Engelska fr\aa{}n Tuntorp
R:Engelska
Q:84
M:2/4
L:1/16
K:G
G2GA B2Bc | d2cd e2B2 | dcAc cBGB | BAFA AFD2 | \
G2GA B2Bc | ddcd e2B2 |
dcAc cBGB | BAFA G4 :: \
d2ef g2d2 | ddef g2B2 |
dcAc cBGB | BAFA AFD2 | \
d2ef g2d2 | ddef g2B2 | dcAc cBGB | BAFA G4 :|
